X:7880
T:Mot i brystet
C:Johan Nicolaisen, words: Johan Nicolaisen
O:Norway
R:March
Z:Transcribed by Frank Nordberg - http://www.musicaviva.com
F:http://abc.musicaviva.com/tunes/nicolaisen-johan/mot-i-brystet-1.abc
M:2/4
L:1/8
K:C
"C"LG>G GG|"C"G>G GG|"F"Lc>c BA|"C"G2 E2S|
w:Mot i brys-tet, vett i pan-nen, st\aal i ben og ar-mer,
w:T\aa-le slit og t\aa-le sludd og t\aa-le frost og var-me,
"Dm7"LF>F FF|"G7"A>A GF|[1"C"E2 "G"G2|"C"c2 z2:|[2"C"E2 "G7"D2|"C"C2 z2||
w:ryg-gen rak, og blik-ket fritt, se det er bra! Nor-ge ha.
w:sli-ke gut-ter det vil gam-le
"G"D2 F2|"G7"LG>G G2|"C"E2 G2|"F"LA>A A2S|
w:Hold nu tak-ten der! In-tet mud-der her!
"F"F2 A2|"G7"B>B BG|"C"E2 "G7"G2|"C"c2 z2|
w:La dem se vi er av ret-te slag!
"Am"Lc>c cc|"Em"B>B BB|"F"LA>A AA|"C"G2 E2S|
w:Ba-re lek? Ja, men av den skal frem-tids-kref-ter vok-se;
"F"LF>F FF|"F"LA>A GF|"C/G"E2 "G7"D2|"C"C2 z2|]
w:der-for er det al-vor i v\aar lek i dag.
W:
W:Mot i brystet, vett i pannen, st\aal i ben og armer,
W:ryggen rak, og blikket fritt, se det er bra!
W:T\aale slit og t\aale sludd og t\aale frost og varme,
W:slike gutter det vil gamle Norge ha.
W:Hold nu takten der! Intet mudder her!
W:La dem se vi er av rette slag!
W:Bare lek? Ja, men av den skal fremtidskrefter vokse;
W:derfor er det alvor i v\aar lek i dag.
W:
W:Der hvor lien brattest stuper, setter han utover,
W:gutten p\aa de glatte ski, s\aa spruten st\aar.
W:Jenten etter! F\aele ting hva slik en unge vover!
W:Du skal se en vakker dag hun gutten n\aar.
W:Sne og is og vann, fjell og skog og strand,
W:der er nok en kan f\aa pr\ove p\aa.
W:Ski og sk\oyter, b\aat og hjul det er en lyst \aa bruke;
W:beste kunsten dog p\aa egne ben p\aa st\aa.
W:
W:\Ove, \ove, jevnt og trutt og tappert, det er tingen.
W:Alltid bedre, om og om og om igjen!
W:F\odt som mester, f\odt som helt, \aa nei, det ble da ingen.
W:Mot og kraft, de vinnes litt og litt om senn.
W:Ta nu muntert i! Intet fuskeri!
W:Er da ikke vi mor Norges b\orn!
W:Vi skal l\aere, vi skal \ove, vi skal krefter vinne,
W:krefter som kan holde ut en alvorst\orn.
W:
W:
W:  From Musica Viva - http://www.musicaviva.com
W:  the Internet center for free sheet music downloads.

